X:1
T:Title
%%score ( 1 2 ) { 3 | 4 }
L:1/8
Q:1/4=155
M:6/4
K:G
V:1 treble nm="Grand Piano, Soprano"
V:2 treble 
V:3 treble nm="Choir Pad, Bass"
V:4 bass 
V:1
 [DG]2 [GB]2 [GB]2 [GB]2 [GB]2 [DA]2 | [DG]2 [Gd]2 [Fd]2 [Ad]2 [Gd]4 | %2
w: By~George~Coles~Stebbins * * * * *||
 [Gd]2 [Gd]2 [GB]2 [DA]2 [EG]2 [EF]2 | [EG]2 [FA]4- [FA]4- [FA]3/2 z/ | %4
w: ||
 [DG]2 [GB]2 [GB]2 [GB]2 [GB]2 [DA]2 | [DG]2 [Gd]2 [Fd]2 [Ad]2 [Gd]4 | %6
w: ||
 [Ge]2 [Gd]2 [DB]2 [DG]2 [DA]2 D2 | [DA]2 [DG]4- [DG]4- [DG]3/2 z/ | %8
w: ||
 [DB]2 [Ec]2 [Ge]2 [Ge]2 [Ge] [Ec]3 | z2 d4- d4- d3/2 z/ | [Gd]2 [Gd]2 [GB]2 [DA]2 [EG]2 [EF]2 | %11
w: |||
 z2 A4- A4- A3/2 z/ | [DG]2 [GB]2 [GB]2 [GB]2 [GB]2 [DA]2 | [DG]2 [Gd]2 [Fd]2 [Gd]2 [Gd]4 | %14
w: |||
 [Ge]2 [Gd]2 [DB]2 [B,G]2 [CA]2 [CD]2 | [CA]2 [B,G]4- [B,G]4- [B,G]3/2 z/ | %16
w: ||
 [B,D]2 [B,D]2 [B,D]2 [B,D]2 [B,D]2 [B,D]2 | [B,D]2 [CE]4- [CE]4- [CE]3/2 z/ | %18
w: ||
 [EG]2 [CF]3 [CF] [CF]2 [CF]2 [CF]2 | [CF]2 [B,G]4- [B,G]4- [B,G]3/2 z/ | %20
w: ||
 [DB]2 [Ec]2 [Ec]2 [Ec]2 [DB]4 | [GB]2 [FA]2 [FA]2 [FA]2 [EG]4 | %22
w: ||
 [CE]2 [B,D]3 [B,D] [B,D]2 [CD]2 [CE]2 | [CF]2 [B,G]4- [B,G]6- | [B,G]6 z6 |] %25
w: |||
V:2
 x12 | x12 | x12 | x12 | x12 | x12 | x12 | x12 | x12 | [Ge]2 G F3 A2 G4 | x12 | [EG]2 F4 G2 F4 | %12
 x12 | x12 | x12 | x12 | x12 | x12 | x12 | x12 | x12 | x12 | x12 | x12 | x12 |] %25
V:3
 B,2 D2 D2 D2 D2 C2 | B,2 B,2 A,2 C2 B,4 | B,2 B,2[K:treble] D2 D2 ^C2 C2 | ^C2 D4- D4- D3/2 z/ | %4
 B,2 D2 D2 D2 D2 C2 | B,2 B,2 A,2 C2 B,4 | C2 B,2 G,2 B,2 C2 C2 | C2 G,4- G,4- G,3/2 z/ | %8
 G,2 G,2[K:treble] C2 C2 C G,3 | C2[K:bass] B, A,3 C2 B,4 | B,2 B,2[K:treble] D2 D2 ^C2 C2 | %11
 ^C2 D4 E2 D4 | B,2 D2 D2 D2 D2 C2 | B,2 B,2 A,2 C2 B,4 | C2 B,2 G,2 G,2 F,2 F,2 | %15
 F,2 G,4- G,4- G,3/2 z/ | G,2 G,2 G,2 G,2 G,2 G,2 | G,2 G,2 G,2 G,2 G,4 | C2 A,3 A, A,2 A,2 A,2 | %19
 A,2 G,4- G,4- G,3/2 z/ | G,2 G,2 G,2 G,2 G,4 | D2 C2 C2 C2 B,4 | G,2 G,3 G, G,2 F,2 G,2 | %23
 A,2 G,4- G,6- | G,6 z6 |] %25
V:4
 G,2 G,2 G,2 G,2 G,2 G,2 | G,2 D,2 D,2 D,2 G,4 | G,2 G,2 G,2 F,2 E,2 A,,2 | %3
 A,,2 D,4- D,4- D,3/2 z/ | G,2 G,2 G,2 G,2 G,2 G,2 | G,2 D,2 D,2 D,2 G,4 | %6
 C,2 D,2 D,2 D,2 D,2 F,2 | D,2 G,,4- G,,4- G,,3/2 z/ | z2 C,2 C,2 C,2 C, C,3 | C,2 G, D,3 D,2 G,4 | %10
 G,2 G,2 G,2 F,2 E,2 A,,2 | A,,2 D,4- D,4- D,3/2 z/ | G,2 G,2 G,2 G,2 G,2 G,2 | %13
 G,2 D,2 D,2 D,2 G,4 | C,2 D,2 D,2 D,2 D,2 D,2 | D,2 G,,4- G,,4- G,,3/2 z/ | %16
 G,,2 G,,2 G,,2 G,,2 G,,2 G,,2 | G,,2 C,2 C,2 C,2 C,4 | C,2 D,3 D, D,2 D,2 D,2 | %19
 D,2 G,,4- G,,4- G,,3/2 z/ | G,,2 C,2 C,2 .E,6 | G,2 D,2 D,2 D,2 E,4 | A,,2 D,3 D, D,2 D,2 D,2 | %23
 D,2 G,,4- G,,6- | G,,6 z6 |] %25

